resources/svg/refresh.svg

<svg xmlns="http://www.w3.org/2000/svg" viewBox="0 0 15 15" fill="currentColor"><path fill-rule="evenodd" clip-rule="evenodd" d="M14 7.5C14 3.91015 11.0899 1 7.5 1V0C11.6421 0 15 3.35786 15 7.5C15 9.6733 14.0751 11.6308 12.599 13H15V14H11V10H12V12.1905C13.2333 11.007 14 9.34315 14 7.5ZM2.40095 2H0V1H4V5H3V2.80955C1.76671 3.993 1 5.65685 1 7.5C1 11.0899 3.91015 14 7.5 14V15C3.35786 15 0 11.6421 0 7.5C0 5.3267 0.924851 3.36918 2.40095 2Z" fill="black"/></svg>

<svg xmlns="http://www.w3.org/2000/svg" viewBox="0 0 15 15" fill="currentColor"><path fill-rule="evenodd" clip-rule="evenodd" d="M14 7.5A6.5 6.5 0 007.5 1V0a7.5 7.5 0 015.099 13H15v1h-4v-4h1v2.19a6.48 6.48 0 002-4.69zM2.4 2H0V1h4v4H3V2.81A6.5 6.5 0 007.5 14v1A7.5 7.5 0 012.4 2z" fill="currentColor"/></svg>
